icons/svg/icons8/cruise_ship.svg

<?xml version="1.0" encoding="utf-8"?>
<!-- Generator: Adobe Illustrator 15.0.0, SVG Export Plug-In . SVG Version: 6.00 Build 0)  -->
<!DOCTYPE svg PUBLIC "-//W3C//DTD SVG 1.1//EN" "http://www.w3.org/Graphics/SVG/1.1/DTD/svg11.dtd">
<svg version="1.1" id="Layer_1" xmlns="http://www.w3.org/2000/svg" xmlns:xlink="http://www.w3.org/1999/xlink" x="0px" y="0px"
	 width="26px" height="26px" viewBox="0 0 26 26" enable-background="new 0 0 26 26" xml:space="preserve">
<rect x="902" y="1469" fill="#333333" width="26" height="2"/>
<rect x="902" y="1489" fill="#333333" width="26" height="2"/>
<rect x="906" y="1474" fill="#333333" width="18" height="2"/>
<rect x="902" y="1479" fill="#333333" width="26" height="2"/>
<rect x="906" y="1484" fill="#333333" width="18" height="2"/>
<rect x="902" y="1467" fill="none" width="26" height="26"/>
<path fill="#333333" d="M4.248,6.956c0.663,0.094,0.999,0.59,1.27,1.15c0.17,0.351,0.579,0.87,0.475,1.279
	c-0.124,0.48-0.881,0.622-1.288,0.478C4.338,9.733,4.172,9.368,4.043,9.031C3.911,8.688,3.727,8.376,3.595,8.033
	C3.359,7.42,3.469,6.846,4.248,6.956z"/>
<rect fill="none" width="26" height="26"/>
<path fill="#333333" d="M26,20.934c-0.268,0.094-0.591,0.16-1,0.16c-0.833,0-2.113-0.228-3-0.926c-0.887,0.698-2.167,0.926-3,0.926
	s-2.113-0.228-3-0.926c-0.887,0.698-2.167,0.926-3,0.926s-2.113-0.228-3-0.926c-0.887,0.698-2.167,0.926-3,0.926
	s-2.113-0.228-3-0.926c-0.887,0.698-2.167,0.926-3,0.926c-0.374,0-0.699-0.033-1-0.08v1.846c0.291,0.031,0.619,0.051,1,0.051
	c1.734,0,2.369-0.43,3-0.926c0.887,0.698,2.167,0.926,3,0.926s2.113-0.228,3-0.926c0.887,0.698,2.167,0.926,3,0.926
	s2.113-0.228,3-0.926c0.887,0.698,2.167,0.926,3,0.926s2.113-0.228,3-0.926c0.887,0.698,2.167,0.926,3,0.926
	c0.414,0,0.736-0.063,1-0.15V20.934z"/>
<path fill="#333333" d="M26,23.934c-0.268,0.094-0.591,0.16-1,0.16c-0.833,0-2.113-0.228-3-0.926c-0.887,0.698-2.167,0.926-3,0.926
	s-2.113-0.228-3-0.926c-0.887,0.698-2.167,0.926-3,0.926s-2.113-0.228-3-0.926c-0.887,0.698-2.167,0.926-3,0.926
	s-2.113-0.228-3-0.926c-0.887,0.698-2.167,0.926-3,0.926c-0.374,0-0.699-0.033-1-0.08v1.846c0.291,0.031,0.619,0.051,1,0.051
	c1.734,0,2.369-0.43,3-0.926c0.887,0.698,2.167,0.926,3,0.926s2.113-0.228,3-0.926c0.887,0.698,2.167,0.926,3,0.926
	s2.113-0.228,3-0.926c0.887,0.698,2.167,0.926,3,0.926s2.113-0.228,3-0.926c0.887,0.698,2.167,0.926,3,0.926
	c0.414,0,0.736-0.063,1-0.15V23.934z"/>
<polygon fill="none" stroke="#333333" stroke-width="2" stroke-linecap="round" stroke-linejoin="round" stroke-miterlimit="10" points="
	16,7 11.293,7 10.682,10 7.048,10 5.048,7 3,7 4,10 2,13 21,13 "/>
<path fill="#333333" d="M25.78,12.375C25.591,12.138,25.304,12,25,12h-5.001l-2,3H3l-1-3H1c-0.553,0-1,0.448-1,1v3
	c0,3.883,3.373,6,5.106,6h10.43c4.081,0,9.162-3.341,10.37-8.766C25.972,12.938,25.97,12.611,25.78,12.375z M22,15.932
	c0,0.498-0.498,0.515-0.498,0.515h-1.093c0,0-0.578-0.032-0.578-0.53c0-0.289,0-0.707,0-0.707S19.85,15,20.186,15
	s0.368,0.209,0.368,0.209v0.434c0,0,0.034,0.209,0.354,0.209s0.369-0.209,0.369-0.209v-0.434c0,0,0.033-0.209,0.369-0.209
	C21.983,15,22,15.209,22,15.209S22,15.658,22,15.932z"/>
<line fill="none" stroke="#333333" stroke-width="2" stroke-linecap="round" stroke-linejoin="round" stroke-miterlimit="10" x1="4" y1="10" x2="17.924" y2="10"/>
</svg>

<svg width="26" height="26" viewBox="0 0 26 26" fill="none" xmlns="http://www.w3.org/2000/svg">
<g clip-path="url(#clip0)">
<path d="M4.24812 6.95601C4.91112 7.05001 5.24712 7.54601 5.51812 8.10601C5.68812 8.45701 6.09712 8.97601 5.99312 9.38501C5.86912 9.86501 5.11212 10.007 4.70512 9.86301C4.33812 9.73301 4.17212 9.36801 4.04312 9.03101C3.91112 8.68801 3.72712 8.37601 3.59512 8.03301C3.35912 7.42001 3.46912 6.84601 4.24812 6.95601Z" fill="#333333"/>
<path d="M26 20.934C25.732 21.028 25.409 21.094 25 21.094C24.167 21.094 22.887 20.866 22 20.168C21.113 20.866 19.833 21.094 19 21.094C18.167 21.094 16.887 20.866 16 20.168C15.113 20.866 13.833 21.094 13 21.094C12.167 21.094 10.887 20.866 10 20.168C9.113 20.866 7.833 21.094 7 21.094C6.167 21.094 4.887 20.866 4 20.168C3.113 20.866 1.833 21.094 1 21.094C0.626 21.094 0.301 21.061 0 21.014V22.86C0.291 22.891 0.619 22.911 1 22.911C2.734 22.911 3.369 22.481 4 21.985C4.887 22.683 6.167 22.911 7 22.911C7.833 22.911 9.113 22.683 10 21.985C10.887 22.683 12.167 22.911 13 22.911C13.833 22.911 15.113 22.683 16 21.985C16.887 22.683 18.167 22.911 19 22.911C19.833 22.911 21.113 22.683 22 21.985C22.887 22.683 24.167 22.911 25 22.911C25.414 22.911 25.736 22.848 26 22.761V20.934Z" fill="#333333"/>
<path d="M26 23.934C25.732 24.028 25.409 24.094 25 24.094C24.167 24.094 22.887 23.866 22 23.168C21.113 23.866 19.833 24.094 19 24.094C18.167 24.094 16.887 23.866 16 23.168C15.113 23.866 13.833 24.094 13 24.094C12.167 24.094 10.887 23.866 10 23.168C9.113 23.866 7.833 24.094 7 24.094C6.167 24.094 4.887 23.866 4 23.168C3.113 23.866 1.833 24.094 1 24.094C0.626 24.094 0.301 24.061 0 24.014V25.86C0.291 25.891 0.619 25.911 1 25.911C2.734 25.911 3.369 25.481 4 24.985C4.887 25.683 6.167 25.911 7 25.911C7.833 25.911 9.113 25.683 10 24.985C10.887 25.683 12.167 25.911 13 25.911C13.833 25.911 15.113 25.683 16 24.985C16.887 25.683 18.167 25.911 19 25.911C19.833 25.911 21.113 25.683 22 24.985C22.887 25.683 24.167 25.911 25 25.911C25.414 25.911 25.736 25.848 26 25.761V23.934Z" fill="#333333"/>
<path d="M16 7H11.293L10.682 10H7.048L5.048 7H3L4 10L2 13H21L16 7Z" stroke="#333333" stroke-width="2" stroke-miterlimit="10" stroke-linecap="round" stroke-linejoin="round"/>
<path d="M25.78 12.375C25.591 12.138 25.304 12 25 12H19.999L17.999 15H3L2 12H1C0.447 12 0 12.448 0 13V16C0 19.883 3.373 22 5.106 22H15.536C19.617 22 24.698 18.659 25.906 13.234C25.972 12.938 25.97 12.611 25.78 12.375ZM22 15.932C22 16.43 21.502 16.447 21.502 16.447H20.409C20.409 16.447 19.831 16.415 19.831 15.917C19.831 15.628 19.831 15.21 19.831 15.21C19.831 15.21 19.85 15 20.186 15C20.522 15 20.554 15.209 20.554 15.209V15.643C20.554 15.643 20.588 15.852 20.908 15.852C21.228 15.852 21.277 15.643 21.277 15.643V15.209C21.277 15.209 21.31 15 21.646 15C21.983 15 22 15.209 22 15.209C22 15.209 22 15.658 22 15.932Z" fill="#333333"/>
<path d="M4 10H17.924" stroke="#333333" stroke-width="2" stroke-miterlimit="10" stroke-linecap="round" stroke-linejoin="round"/>
</g>
<defs>
<clipPath id="clip0">
<rect width="26" height="26" fill="white"/>
</clipPath>
</defs>
</svg>
